X:1
T:- # -
%%score [ 1 2 3 4 ]
L:1/8
M:4/4
K:C
V:1 treble nm="Sopran" snm=" "
V:2 treble-8 nm="Alt"
V:3 treble-8 nm="Tenor"
V:4 bass nm="Baß"
V:1
"^Christobal de Morales" z8 | A8 | A4 E4 |"^VI.  Immutemur habitu" G4 A4 |"^5" E2 G2 F4 | %5
w: |Im-|mu- *|te- *|mur ha- bi-|
w: |||||
w: |||||
 E4 D3"^1546" E | FG A2 G2 F2 | E8 | E4 G4- |"^10" G4 E4 | F8 | F4 E4 | E2 G4 F2 | G4 F4 | %14
w: tu, ~im- *|||mu- *||te-|mur ha-|\-bi- * *|* tu|
w: |||||||||
w: |||||||||
"^15" z8 | z8 | A4 A2 A2 | D2 F2 E2 D2 | E4 F4 |"^20" E4 z2 E2 | E2 E2 D2 F2- | F2 E2 C2 D2 | %22
w: ||in ci- ne-|re et ci *|\-li- ci-|~o, in|ci- ne- re et|* ci- li- ci-|
w: ||||||||
w: ||||||||
 E4 z2 E2- | E2 F2 G4 |"^25" A6 G2- | G2 FE F4 | E6 G2 | F2 E2 C2 E2- | ED D4 ^C2 |"^30" D8 | z8 | %31
w: ~o, et|* ci- li-||* * * ci-|~o, et|ci- * * li-|* * * ci-|~o.||
w: |||||||||
w: |||||||||
 z4 A4- | A2 A2 c4 | d8 |"^35" z4 z2 A2- | A2 A2 c3 B | G2 A4 G2 | A2 A2 E4 | z8 |"^40" z2 C2 D4 | %40
w: Ie-|* iu- ne-|mus|et|* plo- re- *|\-mus an- te|do- mi- num,||qui- a|
w: |||||||||
w: |||||||||
 E4 E2 E2 | D2 D2 E3 D | EF G4 ^F2 | G4 z4 |"^45" D8 | E4 F4 | E2 A2 A2 G2 | A8 | A8 | %49
w: mul- tum mi-|\-se- ri- cors *||est,|qui-|a mul-|tum mi- se- ri-|\-cors|~est,|
w: |||||||||
w: |||||||||
"^50" z4 z2 A2 | G2 A2 c4 | B2 c3 BGA | B2 A4 ^G2 | A4 z4 |"^55" z4 z2 D2- | D2 C2 D2 F2 | %56
w: mi-|se- ri- cors|||~est,|mi-|* * se- ri-|
w: |||||||
w: |||||||
 E2 F3 E D2- | D2 C2 D4 | C4 z4 |"^60" z4 D4 | G6 F2 | D2 A3 G E2 | F2 G2 E4 | F6 E2 | %64
w: ~cors * * *|* * ~est,||di-|mi- ne-|re pec- * *|ca- * ta|no- *|
w: ||||||||
w: ||||||||
"^65" E4 z2 A2 | d6 c2 | B2 A3 G E2 | F2 G2 E4 | D3 E F2 G2 |"^70" C2 E3 F G2 | F2 E3 D F2 | %71
w: stra, di-|\-mi- ne-|re pec * *|ca- * ta|no * * *|stra, pec- * *|\-ca- * * ta|
w: |||||||
w: |||||||
 E2 D4 ^C2 | D4 z4 | z8 |"^75" z2 E4 D2 | F2 E2 C2 D2 | E4 E4 | C2 D2 E2 F2 | E3 F G2 F2 | %79
w: no- * *|stra,||de- us|no * * *|\-ster, de-|us no- * *||
w: ||||||||
w: ||||||||
"^80" E4 z2 A2- | A2 G2 c3 B | G2 A4 ^G2 | A4 z2 D2- | D2 C2 F4 |"^85" E4 C3 D | E2 D4 ^C2 | D8 | %87
w: ster, de-|* us no- *||ster, de-|* us no-|||~ster.|
w: ||||||||
w: ||||||||
[M:4/4]"^Secunda pars" z8 | z8 | z8 | z8 | z8 | z4 D4 | A6 G2 |"^95" A2 E2 F2 G2 | E4 F4- | %96
w: |||||Iu-|\-sta ve-|sti- bu- lum et|al- ta-|
w: |||||||||
w: |||||||||
 F2 E2 D2 A2- | A2 ^G2 A4 | G2 A3 G F2 |"^100" E4 F2 E2 | E4 z2 E2 | E6 G2 | F2 E2 F4 | E4 z2 A2 | %104
w: * ~re, iu- sta|* ve- sti-|* * bu- lum|et al- ta-|re plo-|ra- bant|sa- cer- do-|~tes, plo-|
w: ||||||||
w: ||||||||
"^105" A6 c2 | B2 A2 B4 | A4 z2 A2- | AG F2 E2 D2 | E2 A3 G F2- |"^110" F2 E2 F4 | z2 F2 E2 D2 | %111
w: ra- bant|sa- cer- do-|tes et|* * * le- *|vi * * *|* * te|mi- ni- stri|
w: |||||||
w: |||||||
 A6 GF | G4 A4 | G2 F2 E4 |"^115" z8 | z4 F4- | F4 E4 | D2 D2 C4 | z8 |"^120" z4 F4- | F4 E4 | %121
w: do- mi *|ni di-|cen- * tes:||~Par-|* ce|do- mi- ne,||par-|* ce|
w: ||||||||||
w: ||||||||||
 D2 D2 C4- | C2 D2 E4 | F8 |"^125" z4 c4- | c4 B4 | A4 G2 A2- | AG G4 ^F2 | G4 G4 | %129
w: do- mi- ne,|||par-|* ce|po- pu- lo|* * tu- *|~o, tu-|
w: ||||||||
w: ||||||||
"^130" F2 E2 E4 | z2 G4 A2 | _B2 B2 A2 c2 | B2 A3 G G2- | G2 ^F2 G4 |"^135" z2 G2 G2 G2 | A6 G2 | %136
w: * * o|et ne|dis- si- pes, et|ne dis * *|* si- pes|o- ra ca-|nen- *|
w: |||||||
w: |||||||
 G3 F E2 D2 | D4 z2 D2 | D2 D2 E4- |"^140" E2 D2 D2 G2 | G2 G2 A2 B2- | BA G4 ^F2 | G8 | %143
w: * * * ti-|~\-um, o-|ra ca- nen-|* ti- um, o-|ra ca- nen *|* * * ti-|um|
w: |||||||
w: |||||||
 z4 z2 G2- |"^145" G2 FE FG A2 | GFED E4 | F4 D2 E2 | G4 z4 | z2 E4 C2 |"^150" D2 F2 E4 | E6 F2 | %151
w: ad|||te do- mi-|ne|ad te|do- mi- ne,|ad te|
w: ||||||||
w: ||||~||||
 E2 D2 E4 | F2 A2 G2 F2- | F2 ED E2 F2 |"^155" E2 D4 ^C2 | D8- | D4 z2 A2- | A2 F2 G2 _B2- | %158
w: do * *|||* * mi-|ne,|* ad|* te do- *|
w: |||||||
w: |||||||
 B2 A2 G4 | ^F8 |] %160
w: * * mi-|~ne.|
w: ||
w: ||
V:2
 d8 | d4 A3 B | c2 d4 c2 | B4 A3 B | cd e3 d d2- | d2 c2 B2 d2- | d2 c2 BA d2- | d2 cB c4- | %8
w: Im-|mu- te *||||* * mur ha-|||
 c2 BA B2 e2- | ed d4 ^c2 | d8- | d4 c4 | c2 e3 d d2- | d2 c2 d2 c2 | c4 z4 | z4 e4 | e2 e2 A2 c2 | %17
w: |* * * bi-|tu,|* im-|\-mu- te- * *|* mur ha- bi-|tu|in|ci- ne- re et|
 B2 AB c2 d2- | d2 ^c2 d2 A2 | B2 c2 B4 | c4 d4 | A2 c3 B A2- | A2 ^G^F G4 | A4 E4- | E2 F2 E2 D2 | %25
w: ci- li * * *|* ci- o, in|ci- ne- re|et~ ci-|li * * *|* * * ci-|~o, ci-|* * li- ci-|
 E2 c2 A2 B2 | c4 B4 | c3 B AG A2- | AF G2 A4- | A8 | z2 d4 d2 | f2 ed e4 | f6 e2 | f4 d4- | %34
w: ~o, in ci- ne-|re et|ci- * * * li-|* * ci- o.||Ie- iu-|ne * * *|mus et|plo- re-|
 d2 d2 f4- | f2 e2 c2 e2- | e2 dc d2 d2 | e4 z2 A2- | A2 A2 c2 B2- | BA A3 ^GG^F | A4 G2 c2- | %41
w: * mus an-|* te do- *|* * * * mi-|~num, an-|* te do- mi-||* ~num, an-|
 c2 B2 c4- | c2 e2 d4 | G8 | A4 B4 | c4 d4 | c4 z2 e2 | e2 e2 f4 | e2 d2 c2 A2- | A2 G2 c3 d | %50
w: * te do-|* mi- num|qui-|a *|mul- *|tum mi-|\-se- ri- cors|est, * * mul-||
 e2 f2 e4 | e6 e2 | d2 c2 B4 | c4 B2 c2- | cB A4 ^G2 | A8 | z4 d4 | g6 f2 | e2 c2 f4 | e4 d2 f2- | %60
w: * * tum|mi- se-|ri- cors est,|mi- se- ri|* * * cors|est,|di-|mi- ne-|re pec- ca-|* ta no-|
 f2 e2 d4 | f3 e c3 B | c2 d4 c2 | d3 c A2 c2- | cA c3 B A2- | A2 G2 A2 A2 | d6 cB | c2 d2 d2 c2 | %68
w: |||||* * stra, di-|mi- * *|* ne- re pec-|
 f4 d2 e2- | ed c2 B4 | A4 c4- | c2 A2 A4 | A4 B2 c2- | cA B2 A2 A2- | A2 G2 c2 A2 | B2 c3 B A2- | %76
w: ca- ta no-|* * * stra,|di- mi-|* ne- re|pec- ca- *|* ta no- stra, de-|* us no- *||
 A2 ^G2 A4 | z4 z2 A2- | A2 G2 d3 c | A2 c4 d2 | e4 z2 e2- | e2 d2 e4 | e2 A4 G2 | A8- | A8 | A8- | %86
w: * * ster,|de-|* us no- *||ster, de-|* us no-|ster, de- us|no-||~ster.|
 A8 |[M:4/4] z8 | z4 A4 | e6 d2 | e2 c2 d2 A2 | B2 c2 A2 d2 | c2 A4 G2 | c4 B4 | A2 c3 B d2- | %95
w: ||Iu-|sta ve-|sti- bu- lum et|al- ta * *||||
 d2 c2 d4 | z4 z2 A2 | e6 d2 | e2 c2 d4 | A2 c2 F2 A2- | A2 ^G2 A4 | B4 B2 B2 | d2 e2 c2 d2 | %103
w: * * re,|iu-|sta ve-|sti- bu- lum|et al- ta *|* * re|plo- ra- bant|sa- cer- do *|
 B4 c4 | A2 d4 c2 | d2 f2 e2 d2- | d2 c2 d2 f2- | fe d2 c2 d2- | d2 c2 d2 A2 | c2 c2 d4 | %110
w: |tes et le-|\-vi- * * *|* * ~te, et|* * * le- vi-|* * te mi-|ni- stri do-|
 A2 (d4 cB) | (c4 d2) f2- | f2 e2 f3 e | c2 d3 ccd | e2 d4 c2 | d8 | c8 | B4 A4- | A4 G4 | F8 | %120
w: mi- ni * *|* di- cen-||||tes:|Par-|ce do-|* mi-|~ne,|
 c8 | B4 A4- | A4 G4 | F4 f4- | f4 e4 | d6 e2 | f4 e4 | d8- | d4 c4 | z2 B4 c2 | d4 e2 f2 | %131
w: par-|ce do-|* mi-|ne, par-|* ce|po- pu-|lo tu-||* o|et ne|dis- * *|
 _e2 d4 c2 | d4 B2 c2 | d4 z2 d2 | d2 d2 e4- | e2 d2 d2 B2 | c4 c2 B2- | BA G4 FE | F2 G2 G4 | %139
w: |* si- *|pes o-|ra ca- nen-|* ti- um, o-|ra ca- nen-||* ti- um,|
 z2 G2 d2 d2 | c2 B2 d4 | B2 c2 d4 | B4 c2 e2- | ed d4 c2 | d4 d2 f2 | e2 d4 c2 | d4 B4 | e4 dcBA | %148
w: o- ra ca-|nen * *|ti- * um|ad te do-|||* * mi-|ne, ad|te do * * *|
 B4 c4 | A2 d2 c2 B2 | A4 c4 | B2 d4 c2 | d2 f2 e2 d2- | d2 cB c4 | _B2 G2 A4- | A4 A4 | B2 d4 d2 | %157
w: |* mi * *|~ne, ad|te do- *|||* mi- ne,|* ad|te do- mi-|
 d8- | d8- | d8 |] %160
w: ne.|||
V:3
 z8 | z8 | z8 | z8 | z8 | z8 | z8 | A8 | A4 E4 | G4 A4 | A8 | A4 A4 | G2 c2 B2 A2- | A2 G2 A4- | %14
w: |||||||Im-|mu- *|te- *|mur|ha- bi-||* * tu,|
 A2 c2 B2 A2- | A2 ^G2 A4- | A8 | z4 A4 | A2 A2 D2 F2 | G2 A4 ^G2 | A4 z2 A2 | A2 A2 A4 | B6 B2 | %23
w: * ha * *|* bi- tu||in|ci- ne- re et|ci- li- ci-|~o, in|ci- ne- re|et~ ci-|
 c2 c2"^___\n" B4 | c6 B2 | G2 A4 F2 | G2 A4 G2 | A3 G E2 C2 | D4 E4 | D4 z4 | A6 B2 | c2 d4 c2 | %32
w: li- ci- o.|||||||Ie- iu-|ne * *|
 d4 A4- | A2 A2 _B2 A2- | AF _B4 A2 | F2 A3 B c2- | c2 BA B4 | A2 c3 B A2- | AG F2 E2 D2 | %39
w: mus et|* plo- re- *|* * * ~mus,|et plo- * *|* * * re-|mus an- * *|* * * * te|
 F2 E2 D4 | C8 | G8 | c4 A4 | G2 c2 B2 G2- | G2 F2 G4- | G4 A4- | A4 B4 |"^______\n" c4 d4 | %48
w: do- * mi-|~num,|qui-|a~ mul-|tum mi- se- *|* ri- cors|||* est,|
 z2 A2 A2 A2 | B4 A4 | z4 A4 | G2 A2 c3 B | G2 A2 E4 | E4 E4- | E2 F2 D4 | E4 D2 A2 | A6 B2 | %57
w: mi- se- ri-|cors ~est,|mul-|tum mi- se- ri-|cors * ~est,|mi- se-|* ri- ~cors|* ~est, mi-|se- ri-|
 G4 A4 | z2 A2 d4- | d2 c2 B2 d2 | c3 B G2 _B2- | BA F3 G A2- | A2 G2 A4 | A4 F2 G2 | A4 G2 F2 | %65
w: cors est,|di- mi-|* ne- re pec-|ca- * ta no-||* * ~stra,|di- mi- ne-|re pec *|
 D4 E3 F | G2 F2 E2 A2- | A2 G2 A4- | A4 z2 E2 | A6 G2 | c3 B A4 | G2 F2 E4 | D4 z2 A2- | %73
w: \-ca- ta *|* no * *|* * stra,|* di-|mi- ne-|\-re pec- ca-|ta no- *|~stra, de-|
 A2 G2 c4 | B4 A4 | F2 G2 A4 | B4 c4 | z2 G4 F2 | c4 B2 A2 | z2 G2 A4 | B4 A2 c2- | c2 BA B4 | %82
w: * us no-|||* ster,|de- us|no- * ~ster,|de- us|no- * *||
 A4 D4 | E4 z2 D2- | D2 C2 F2 ED | C2 F2 E4 | D8 |[M:4/4] D4 A4- | A2 G2 A2 F2 | G2 A2 F4 | %90
w: |~ster, de-|* us no * *||~ster.|Iu- sta|* ve- sti- bu-|lum et al-|
 E2 A3 GFE | F2 E2 F2 G2 | E2 F2 D4 | E4 z2 E2 | A6 G2 | A6 A2 | A2 c2 B2 A2 | B4 A4 | B2 A2 A4 | %99
w: ta * * * *|||\-re, iu-|sta ve-|sti- bu-|lum et al- ta-|~re, ve-|sti- bu- lum|
 A6 A2 | B4 c4 | G4 G2 G2 | A4 A2 A2- | A2 ^G2 A4 | F4 E3 F | G2 A2 G4 | E4 z2 D2- | D2 D2 A4- | %108
w: et al-|ta- re|plo- ra- bant|sa- cer- do-|* * ~tes,|sa- cer- *|* * do-|~tes et|* le- vi|
 A2 E2 F4 | G4 z2 D2 | D2 D2 A2 A2 | E2 A2 A4 | c8 | z2 A4 c2 | B2 A4 G2 | A8- | A8 | z8 | c8 | %119
w: |te mi-|ni- stri do- mi-|\-ni di- cen-|~tes,|di- *|cen * *|tes:|||Par-|
 B4 A4- | A2 G2 G4- | G4 z4 | c8 | B4 A4- | A2 G2 G4 | G8 | c4 c4 | B2 AG A4 | G4 E4 | F2 G4 A2 | %130
w: ce do-|* mi- ne,||par-|ce po-|* pu- ~lo,|po-|pu- lo|tu- * * *|o et|ne dis- si-|
 B4 c4 | z2 G3 FFE | G2 F2 G4 | A4 G4 | z2 G2 c4 | A2 F4 G2 | E4 z2 G2 | G2 G2 A4- | A2 B2 c4- | %139
w: ~pes, *|et * * *|* ne dis-|si- pes|o- ra|ca- nen- ti-|~um, o-|\-ra ca- nen-||
 c2 B2 B2 G2 | E2 G4 F2 | G4 A4 | G2 G4 G2 | F2 A2 G4 | z2 A4 F2 | G2 _B2 A2 A2- | A2 F2 G4 | %147
w: * ti- um, o-|ra ca- *|nen- ti-|um ad te|do- mi- ~ne,|ad te|do- mi- ne, ad|* te do-|
 c4 B2 A2- | A2 G2 A2 E2 | F2 A4 G2 | c4 A4 | G4 z2 A2- | A2 F2 G2 _B2 | A4 A4 | (GFED E4) | %155
w: |* * * mi-|~ne, ad te|do- mi-|~ne, ad|* te do- *|mi- ne,||
 z2 A4 F2 | G2 _B2 A4 | z2 A2 B2 G2- | G2 A2 B4 | A8 |] %160
w: ad te|do- mi- ne,|ad te do-|* * mi-|~ne.|
V:4
 z8 | z8 | z8 | z8 | z8 | z8 | z8 | z8 | z8 | z8 | D,8 | D,4 A,,4 | C,4 D,4 | E,4 D,2 F,2- | %14
w: ||||||||||Im-|mu *|\-te- *||
 F,E, C,2 D,2 A,,2 | B,,2 B,,2 A,,4- | A,,8 | z8 | z8 | E,4 E,2 E,2 | A,,4 D,4- | %21
w: * * * * mur|ha- bi- tu||||in ci- ne-|re et|
"^© Michael Wendel 2005\nThis edition may be freely duplicated, distributed, performed or recorded for non-profit performance or use.\n" D,2 C,2 F,2 F,2 | %22
w: * ci- li- ci-|
 E,8 | z8 | A,,6 B,,2 | C,2 C,2 D,4 | C,2 A,,2 E,4 | A,,8 | B,,4 A,,4 | z4 D,4- | D,2 D,2 F,2 G,2 | %31
w: ~o,||in ci-|ne- re et|ci- * li~-|ci-|* ~o.|Ie-|* iu- ne- *|
 A,8 | z8 | D,6 D,2 | F,2 G,2 D,4 | z8 | z8 | A,,6 A,,2 | C,2 D,2 A,,2 D,2- | D,2 C,2 B,,2 B,,2 | %40
w: mus||et plo-|re- * mus,|||et plo-|re- * mus an-|* te do- mi-|
 A,,4 z4 | z4 C,4- | C,4 D,4 | E,4 E,2 E,2 | D,2 D,2 G,,4 | C,2 E,2 D,4 | A,,4 E,4 | A,,4 z2 D,2 | %48
w: ~num,|qui-|* a|mul- tum mi-|se- ri- cors|||est, mi-|
 C,2 D,2 F,4 | E,4 A,,4 | z8 | z8 | z8 | A,,4 G,,2 A,,2 | C,2 D,2 B,,4 | A,,4 z2 D,2 | %56
w: se- ri- cors|* est,||||mi- se- ri-|cors * *|est, mi-|
 C,2 D,2 F,2 G,2 | E,4 D,4 | A,,4 z4 | z8 | z8 | z8 | z4 A,,4 | D,6 C,2 | A,,3 B,, C,2 D,2 | %65
w: se- ri- cors *||est,||||di-|mi- *|* ne- re pec-|
 B,,4 A,,4 | G,,2 D,2 A,,4 | z4 A,,4 | D,6 C,2 | A,,2 A,,2 E,4 | A,,4 A,,3 B,, | C,2 D,2 A,,4 | %72
w: \-ca- ta|no- * ~stra,|di-|mi- ne-|re pec- ca-|\-ta no- *|* * ~stra,|
 z2 D,4 C,2 | F,2 E,2 A,,2 C,2 | D,2 E,2 A,,2 D,2- | D,2 C,2 F,4 | E,4 z2 A,,2- | %77
w: de- us|no- * * *|* * ster, de-|* us no-|\-ster, de-|
 A,,2 G,,2 C,2 D,2 | A,,2 C,2 G,,2 D,2- | D,2 C,2 F,4 | E,4 A,,4 | E,2 F,2 E,4 | A,,2 C,2 B,,4 | %83
w: * us no *|* * ~ster, de-|* us no-|||~ster, de- *|
 A,,4 D,4 | A,,8- | A,,8 | D,8 |[M:4/4] z8 | z8 | z8 | A,,4 D,4- | D,2 C,2 D,2 B,,2 | %92
w: * us|no-||~ster.||||Iu- sta|* ve- sti- bu-|
 C,2 D,2 B,,4 | A,,4 E,4 | A,,4 z4 | A,,4 D,4- | D,2 C,2 D,2 F,2 | E,4 F,4 | E,2 F,3 E, D,2- | %99
w: lum et al-|\-ta- *|~re,|iu- sta|* ve- sti- bu-|lum et|al- ta * *|
 D,2 C,2 D,2 A,,2 | E,4 A,,4 | z2 E,2 E,2 E,2 | D,2 C,2 F,2 D,2 | E,4 A,,4 | D,4 A,,4 | %105
w: |* re|plo- ra- bant|sa- cer- do- *|tes, plo-|ra- bant|
 G,,2 F,,2 G,,4 | A,,4 D,4 | z4 A,,4- | A,,2 A,,2 D,4 | C,4 z4 | z4 A,,4 | A,,2 A,,2 D,4 | %112
w: sa- cer- do-|* tes|et|* le- vi-|te|mi-|\-ni- stri do-|
 C,4 F,4 | E,2 D,2 A,4 | G,2 F,2 E,4 | D,8 | A,,8 | z4 F,4- | F,4 E,4 | D,4 D,4 | C,8 | z4 F,4- | %122
w: mi- ni|di- * cen-|||tes:|Par-|* ce|do- mi-|~ne,|par-|
 F,4 E,4 | D,4 D,4 | C,8 | G,,8 | F,,4 C,4 | D,8 | G,,4 C,4 | D,2 E,4 C,2 | G,4 C,2 F,2 | %131
w: * ce|po- pu-|lo|tu-|||o et|ne dis- si-|pes et *|
 G,2 G,,2 A,,4 | G,,2 D,2 E,4 | D,4 G,,4- | G,,4 z4 | z2 D,2 D,2 G,,2 | C,6 G,,2 | G,,4 D,4 | %138
w: ne dis- si-||* ~pes||o- ra ca-|nen- ti-|\-um, o-|
 D,2 G,,2 C,4- | C,2 G,,2 G,,2 G,,2 | C,2 E,2 D,4 | E,4 D,4 | z2 E,4 C,2 | D,2 F,2 E,4 | D,8 | %145
w: ra ca- nen-|* ti- um ad|te do- mi-|* ne,|ad te|do- * mi-|~ne,|
 z4 A,,4 | D,4 z2 E,2- | E,2 C,2 D,2 F,2 | E,4 A,,4 | D,4 E,4 | z2 A,,4 F,,2 | G,,2 B,,2 A,,4 | %152
w: ad|te, ad|* te do- *|\-mi- ~ne,|ad te,|ad te|do- * mi-|
 D,4 z4 | z2 A,,4 F,,2 | G,,2 _B,,2 A,,4 | D,8 | z2 G,4 F,2 | D,2 D,2 G,2 G,,2- | %158
w: ne,|ad te|do- * mi-|~ne,|ad te|do- mi- ne, ad|
 G,,2 F,,2 G,,2 G,,2 | D,8 |] %160
w: * te do- mi-|~ne.|

